;FLAVOR:Marlin
;TIME:17823
;Filament used: 14.955m
;Layer height: 0.2
;MINX:36.708
;MINY:13.522
;MINZ:0.2
;MAXX:183.292
;MAXY:206.478
;MAXZ:9.2
;TARGET_MACHINE.NAME:Creality Ender-3 S1 Pro
;Generated with Cura_SteamEngine 5.10.2
; Ender 3 S1 Pro Start G-code
; M413 S0 ; Disable power loss recovery
G92 E0 ; Reset Extruder

; Prep surfaces before auto home for better accuracy
M140 S65
M104 S228

G28 ; Home all axes
G1 Z10.0 F3000 ; Move Z Axis up little to prevent scratching of Heat Bed
G1 X0 Y0

M190 S65
M109 S228

G1 X0.1 Y20 Z0.3 F5000.0 ; Move to start position
G1 X0.1 Y200.0 Z0.3 F1500.0 E15 ; Draw the first line
G1 X0.4 Y200.0 Z0.3 F5000.0 ; Move to side a little
G1 X0.4 Y20 Z0.3 F1500.0 E30 ; Draw the second line
G92 E0 ; Reset Extruder
G1 Z2.0 F3000 ; Move Z Axis up little to prevent scratching of Heat Bed
G1 X5 Y20 Z0.3 F5000.0 ; Move over to prevent blob squish

M82 ;absolute extrusion mode
G92 E0
G92 E0
G1 F2400 E-0.8
;LAYER_COUNT:46
;LAYER:0
M107
M204 S2000
G0 F7500 X68.642 Y21.448 Z0.2
M204 S500
;TYPE:SKIRT
G1 F2400 E0
G1 F1500 X68.944 Y20.559 E0.03123
G1 X69.351 Y19.637 E0.06475
G1 X69.822 Y18.785 E0.09713
G1 X70.367 Y17.976 E0.12957
G1 X70.958 Y17.248 E0.16076
G1 X71.66 Y16.523 E0.19432
G1 X72.37 Y15.909 E0.22554
G1 X73.189 Y15.319 E0.25912
G1 X74.028 Y14.823 E0.29153
G1 X74.842 Y14.432 E0.32157
G1 X75.819 Y14.064 E0.35629
G1 X76.723 Y13.814 E0.38749
G1 X77.725 Y13.631 E0.42137
G1 X78.896 Y13.535 E0.46044
G1 X79.503 Y13.522 E0.48064
G1 X171.596 Y13.522 E3.54366
G1 X172.476 Y13.535 E3.57294
G1 X173.448 Y13.594 E3.60532
G1 X174.411 Y13.74 E3.63772
G1 X175.358 Y13.971 E3.67014
G1 X176.246 Y14.271 E3.70132
G1 X177.138 Y14.661 E3.7337
G1 X178.021 Y15.148 E3.76724
G1 X178.772 Y15.65 E3.79728
G1 X179.587 Y16.308 E3.83212
G1 X180.285 Y16.986 E3.86448
G1 X180.921 Y17.723 E3.89686
G1 X181.491 Y18.513 E3.92926
G1 X181.953 Y19.289 E3.9593
G1 X182.407 Y20.231 E3.99408
G1 X182.736 Y21.109 E4.02527
G1 X183.005 Y22.081 E4.05881
G1 X183.182 Y23.047 E4.09147
G1 X183.277 Y24.177 E4.12919
G1 X183.292 Y24.852 E4.15165
G1 X183.291 Y194.894 E9.80727
G1 X183.279 Y195.655 E9.83258
G1 X183.221 Y196.628 E9.865
G1 X183.075 Y197.591 E9.8974
G1 X182.844 Y198.538 E9.92982
G1 X182.531 Y199.46 E9.9622
G1 X182.139 Y200.351 E9.99458
G1 X181.687 Y201.173 E10.02578
G1 X181.125 Y202.011 E10.05934
G1 X180.535 Y202.741 E10.09056
G1 X179.832 Y203.467 E10.12417
G1 X179.096 Y204.103 E10.15652
G1 X178.306 Y204.673 E10.18892
G1 X177.53 Y205.136 E10.21898
G1 X176.59 Y205.589 E10.25368
G1 X175.677 Y205.931 E10.28611
G1 X174.739 Y206.19 E10.31848
G1 X173.773 Y206.367 E10.35114
G1 X172.637 Y206.463 E10.38906
G1 X171.962 Y206.478 E10.41151
G1 X79.741 Y206.477 E13.4788
G1 X79.004 Y206.465 E13.50331
G1 X78.032 Y206.406 E13.5357
G1 X77.069 Y206.26 E13.5681
G1 X76.122 Y206.029 E13.60052
G1 X75.198 Y205.715 E13.63298
G1 X74.25 Y205.293 E13.66749
G1 X73.399 Y204.865 E13.69917
G1 X71.119 Y203.758 E13.78347
G1 X68.8 Y202.709 E13.86812
G1 X66.486 Y201.742 E13.95154
G1 X64.134 Y200.837 E14.03536
G1 X61.773 Y200.004 E14.11863
G1 X59.345 Y199.223 E14.20346
G1 X56.966 Y198.531 E14.28587
G1 X54.526 Y197.898 E14.36971
G1 X52.035 Y197.324 E14.45473
G1 X49.566 Y196.828 E14.53849
G1 X46.622 Y196.33 E14.6378
G1 X45.669 Y196.134 E14.67016
G1 X44.735 Y195.855 E14.70258
G1 X43.832 Y195.495 E14.73491
G1 X43.025 Y195.09 E14.76494
G1 X42.135 Y194.539 E14.79976
G1 X41.357 Y193.953 E14.83215
G1 X40.635 Y193.301 E14.86451
G1 X39.972 Y192.587 E14.89692
G1 X39.375 Y191.817 E14.92932
G1 X38.849 Y190.998 E14.9617
G1 X38.397 Y190.135 E14.9941
G1 X38.024 Y189.235 E15.0265
G1 X37.732 Y188.307 E15.05886
G1 X37.521 Y187.355 E15.09129
G1 X37.397 Y186.39 E15.12365
G1 X37.349 Y185.166 E15.16439
G1 X37.349 Y184.17 E15.19752
G1 X37.312 Y181.576 E15.28381
G1 X37.204 Y179.048 E15.36796
G1 X37.014 Y176.389 E15.45663
G1 X36.958 Y175.74 E15.4783
G1 X36.93 Y175.196 E15.49641
G1 X36.917 Y174.572 E15.51717
G1 X36.918 Y171.964 E15.60391
G1 X36.938 Y170.934 E15.63818
G1 X37.063 Y168.587 E15.71635
G1 X37.136 Y166.045 E15.80093
G1 X37.136 Y163.533 E15.88448
G1 X37.065 Y161.028 E15.96783
G1 X36.92 Y158.471 E16.05301
G1 X36.757 Y156.433 E16.12102
G1 X36.721 Y155.819 E16.14147
G1 X36.708 Y155.196 E16.1622
G1 X36.709 Y152.588 E16.24894
G1 X36.721 Y151.861 E16.27312
G1 X36.766 Y151.034 E16.30067
G1 X36.898 Y150.07 E16.33303
G1 X37.114 Y149.121 E16.3654
G1 X37.413 Y148.195 E16.39777
G1 X37.764 Y147.362 E16.42783
G1 X38.253 Y146.438 E16.4626
G1 X38.744 Y145.681 E16.49261
G1 X39.607 Y144.613 E16.53828
G1 X40.116 Y144.09 E16.56256
G1 X40.791 Y143.443 E16.59366
G1 X42.589 Y141.669 E16.67767
G1 X44.355 Y139.823 E16.76263
G1 X46.032 Y137.969 E16.84578
G1 X47.682 Y136.038 E16.93026
G1 X49.239 Y134.109 E17.01271
G1 X50.77 Y132.095 E17.09686
G1 X52.239 Y130.048 E17.18066
G1 X53.647 Y127.963 E17.26433
G1 X54.98 Y125.862 E17.34709
G1 X56.293 Y123.658 E17.43242
G1 X57.501 Y121.495 E17.51482
G1 X58.691 Y119.213 E17.60042
G1 X59.773 Y116.986 E17.68277
G1 X60.812 Y114.69 E17.76659
G1 X61.786 Y112.358 E17.85065
G1 X62.689 Y110.011 E17.93429
G1 X63.536 Y107.613 E18.01887
G1 X64.294 Y105.251 E18.10138
G1 X65.009 Y102.79 E18.18662
G1 X65.633 Y100.389 E18.26913
G1 X66.195 Y97.942 E18.35263
G1 X66.695 Y95.454 E18.43704
G1 X67.117 Y92.989 E18.52022
G1 X67.472 Y90.491 E18.60414
G1 X67.751 Y88.028 E18.68658
G1 X67.969 Y85.475 E18.7718
G1 X68.107 Y83.03 E18.85325
G1 X68.191 Y79.068 E18.98506
G1 X68.192 Y25.031 E20.78234
G1 X68.204 Y24.33 E20.80566
G1 X68.264 Y23.357 E20.83808
G1 X68.411 Y22.396 E20.87042
G1 X68.642 Y21.448 E20.90287
M204 S2000
G0 F7500 X69.021 Y21.577
M204 S500
G1 F1500 X69.323 Y20.688 E20.9341
G1 X69.701 Y19.83 E20.96528
G1 X70.154 Y19.008 E20.9965
G1 X70.678 Y18.228 E21.02775
G1 X71.269 Y17.5 E21.05894
G1 X71.922 Y16.826 E21.09015
G1 X72.632 Y16.212 E21.12137
G1 X73.393 Y15.663 E21.15258
G1 X74.201 Y15.184 E21.18382
G1 X75.015 Y14.793 E21.21386
G1 X75.926 Y14.45 E21.24623
G1 X76.83 Y14.2 E21.27743
G1 X77.758 Y14.03 E21.30881
G1 X78.905 Y13.935 E21.34709
G1 X79.512 Y13.922 E21.36728
G1 X171.59 Y13.922 E24.42981
G1 X172.452 Y13.934 E24.45848
G1 X173.389 Y13.99 E24.4897
G1 X174.317 Y14.129 E24.52091
G1 X175.23 Y14.35 E24.55216
G1 X176.086 Y14.638 E24.5822
G1 X176.978 Y15.028 E24.61458
G1 X177.799 Y15.481 E24.64576
G1 X178.55 Y15.983 E24.67581
G1 X179.309 Y16.595 E24.70824
G1 X179.983 Y17.248 E24.73945
G1 X180.597 Y17.957 E24.77064
G1 X181.147 Y18.718 E24.80187
G1 X181.609 Y19.494 E24.83191
G1 X182.032 Y20.371 E24.8643
G1 X182.361 Y21.249 E24.89548
G1 X182.612 Y22.154 E24.92672
G1 X182.783 Y23.081 E24.95807
G1 X182.878 Y24.211 E24.99579
G1 X182.892 Y24.852 E25.01711
G1 X182.891 Y194.888 E30.67253
G1 X182.88 Y195.632 E30.69728
G1 X182.825 Y196.569 E30.7285
G1 X182.686 Y197.497 E30.75971
G1 X182.465 Y198.41 E30.79095
G1 X182.165 Y199.299 E30.82216
G1 X181.788 Y200.158 E30.85336
G1 X181.336 Y200.98 E30.88456
G1 X180.813 Y201.76 E30.91579
G1 X180.247 Y202.463 E30.94581
G1 X179.57 Y203.165 E30.97825
G1 X178.862 Y203.779 E31.00942
G1 X178.101 Y204.329 E31.04065
G1 X177.325 Y204.792 E31.0707
G1 X176.449 Y205.215 E31.10306
G1 X175.57 Y205.546 E31.1343
G1 X174.666 Y205.797 E31.1655
G1 X173.739 Y205.968 E31.19686
G1 X172.603 Y206.064 E31.23477
G1 X171.962 Y206.078 E31.2561
G1 X79.747 Y206.077 E34.32318
G1 X79.028 Y206.066 E34.3471
G1 X78.091 Y206.01 E34.37832
G1 X77.163 Y205.871 E34.40953
G1 X76.25 Y205.65 E34.44077
G1 X75.36 Y205.349 E34.47202
G1 X74.43 Y204.936 E34.50587
G1 X73.574 Y204.505 E34.53774
G1 X71.284 Y203.393 E34.62241
G1 X68.965 Y202.345 E34.70705
G1 X66.64 Y201.373 E34.79087
G1 X64.278 Y200.464 E34.87505
G1 X61.895 Y199.623 E34.9591
G1 X59.467 Y198.842 E35.04393
G1 X57.073 Y198.146 E35.12685
G1 X54.616 Y197.508 E35.21128
G1 X52.125 Y196.934 E35.2963
G1 X49.645 Y196.436 E35.38043
G1 X46.702 Y195.938 E35.47971
G1 X45.783 Y195.751 E35.5109
G1 X44.883 Y195.483 E35.54213
G1 X44.011 Y195.137 E35.57334
G1 X43.204 Y194.732 E35.60337
G1 X42.375 Y194.219 E35.63579
G1 X41.625 Y193.656 E35.66698
G1 X40.928 Y193.028 E35.69819
G1 X40.288 Y192.341 E35.72942
G1 X39.711 Y191.6 E35.76065
G1 X39.203 Y190.812 E35.79184
G1 X38.766 Y189.981 E35.82307
G1 X38.405 Y189.114 E35.8543
G1 X38.122 Y188.22 E35.88549
G1 X37.918 Y187.303 E35.91674
G1 X37.797 Y186.374 E35.94789
G1 X37.749 Y185.15 E35.98864
G1 X37.749 Y184.17 E36.02123
G1 X37.712 Y181.57 E36.10772
G1 X37.604 Y179.031 E36.19224
G1 X37.413 Y176.36 E36.28131
G1 X37.357 Y175.706 E36.30314
G1 X37.33 Y175.188 E36.32039
G1 X37.317 Y174.572 E36.34088
G1 X37.318 Y171.971 E36.42739
G1 X37.337 Y170.955 E36.46119
G1 X37.463 Y168.598 E36.5397
G1 X37.536 Y166.056 E36.62428
G1 X37.536 Y163.533 E36.70819
G1 X37.465 Y161.017 E36.79191
G1 X37.319 Y158.439 E36.87779
G1 X37.156 Y156.41 E36.94549
G1 X37.121 Y155.811 E36.96545
G1 X37.108 Y155.196 E36.98591
G1 X37.109 Y152.594 E37.07245
G1 X37.12 Y151.882 E37.09614
G1 X37.162 Y151.088 E37.12258
G1 X37.288 Y150.158 E37.1538
G1 X37.495 Y149.243 E37.185
G1 X37.782 Y148.35 E37.2162
G1 X38.133 Y147.517 E37.24626
G1 X38.589 Y146.656 E37.27867
G1 X39.08 Y145.899 E37.30868
G1 X39.894 Y144.892 E37.35174
G1 X40.393 Y144.379 E37.37555
G1 X41.068 Y143.732 E37.40665
G1 X42.87 Y141.954 E37.49084
G1 X44.644 Y140.1 E37.57619
G1 X46.329 Y138.237 E37.65974
G1 X47.986 Y136.298 E37.74457
G1 X49.55 Y134.36 E37.8274
G1 X51.095 Y132.328 E37.9123
G1 X52.564 Y130.281 E37.9961
G1 X53.985 Y128.177 E38.08055
G1 X55.324 Y126.067 E38.16366
G1 X56.637 Y123.863 E38.24899
G1 X57.856 Y121.68 E38.33215
G1 X59.046 Y119.398 E38.41775
G1 X60.133 Y117.161 E38.50047
G1 X61.176 Y114.855 E38.58465
G1 X62.155 Y112.512 E38.66911
G1 X63.062 Y110.155 E38.75311
G1 X63.913 Y107.746 E38.83808
G1 X64.675 Y105.373 E38.92098
G1 X65.393 Y102.902 E39.00656
G1 X66.02 Y100.49 E39.08945
G1 X66.585 Y98.032 E39.17334
G1 X67.087 Y95.533 E39.25812
G1 X67.511 Y93.057 E39.34167
G1 X67.868 Y90.547 E39.42599
G1 X68.15 Y88.062 E39.50917
G1 X68.367 Y85.509 E39.59439
G1 X68.507 Y83.038 E39.67671
G1 X68.591 Y79.076 E39.80851
G1 X68.592 Y25.037 E41.60586
G1 X68.603 Y24.354 E41.62858
G1 X68.66 Y23.417 E41.6598
G1 X68.8 Y22.49 E41.69098
G1 X69.021 Y21.577 E41.72223
M204 S2000
G0 F7500 X69.4 Y21.705
M204 S500
G1 F1500 X69.689 Y20.849 E41.75228
G1 X70.052 Y20.022 E41.78232
G1 X70.486 Y19.231 E41.81232
G1 X70.989 Y18.48 E41.84239
G1 X71.557 Y17.778 E41.87242
G1 X72.184 Y17.128 E41.90246
G1 X72.866 Y16.536 E41.9325
G1 X73.598 Y16.007 E41.96254
G1 X74.374 Y15.545 E41.99257
G1 X75.188 Y15.154 E42.02261
G1 X76.033 Y14.835 E42.05265
G1 X76.903 Y14.593 E42.08268
G1 X77.791 Y14.429 E42.11272
G1 X78.914 Y14.335 E42.1502
G1 X79.521 Y14.322 E42.17039
G1 X171.585 Y14.322 E45.23245
G1 X172.429 Y14.333 E45.26053
G1 X173.331 Y14.386 E45.29058
G1 X174.224 Y14.518 E45.32061
G1 X175.102 Y14.729 E45.35064
G1 X175.958 Y15.017 E45.38068
G1 X176.785 Y15.379 E45.4107
G1 X177.577 Y15.814 E45.44076
G1 X178.328 Y16.316 E45.4708
G1 X179.031 Y16.883 E45.50084
G1 X179.681 Y17.51 E45.53088
G1 X180.273 Y18.192 E45.56092
G1 X180.803 Y18.923 E45.59095
G1 X181.265 Y19.699 E45.62099
G1 X181.658 Y20.512 E45.65102
G1 X181.976 Y21.357 E45.68105
G1 X182.219 Y22.227 E45.71109
G1 X182.384 Y23.115 E45.74113
G1 X182.479 Y24.245 E45.77885
G1 X182.492 Y24.852 E45.79904
G1 X182.491 Y194.882 E51.45426
G1 X182.481 Y195.609 E51.47845
G1 X182.429 Y196.511 E51.5085
G1 X182.297 Y197.404 E51.53852
G1 X182.086 Y198.283 E51.56859
G1 X181.799 Y199.139 E51.59862
G1 X181.437 Y199.966 E51.62864
G1 X181.003 Y200.758 E51.65868
G1 X180.501 Y201.509 E51.68872
G1 X179.935 Y202.212 E51.71874
G1 X179.308 Y202.863 E51.7488
G1 X178.627 Y203.455 E51.77882
G1 X177.896 Y203.985 E51.80885
G1 X177.12 Y204.448 E51.8389
G1 X176.307 Y204.841 E51.86894
G1 X175.462 Y205.161 E51.89899
G1 X174.593 Y205.404 E51.929
G1 X173.705 Y205.569 E51.95904
G1 X172.569 Y205.665 E51.99696
G1 X171.962 Y205.678 E52.01715
G1 X79.753 Y205.677 E55.08404
G1 X79.051 Y205.667 E55.10739
G1 X78.149 Y205.614 E55.13744
G1 X77.256 Y205.482 E55.16746
G1 X76.378 Y205.271 E55.1975
G1 X75.522 Y204.983 E55.22754
G1 X74.61 Y204.579 E55.26071
G1 X73.749 Y204.145 E55.29278
G1 X71.449 Y203.028 E55.37783
G1 X69.13 Y201.981 E55.46245
G1 X66.794 Y201.004 E55.54667
G1 X64.422 Y200.091 E55.6312
G1 X62.017 Y199.242 E55.71603
G1 X59.589 Y198.461 E55.80086
G1 X57.18 Y197.761 E55.8843
G1 X54.706 Y197.118 E55.96932
G1 X52.215 Y196.544 E56.05434
G1 X49.724 Y196.044 E56.13885
G1 X46.781 Y195.546 E56.23812
G1 X45.896 Y195.367 E56.26815
G1 X45.03 Y195.111 E56.29819
G1 X44.19 Y194.779 E56.32823
G1 X43.383 Y194.374 E56.35826
G1 X42.615 Y193.899 E56.3883
G1 X41.892 Y193.358 E56.41833
G1 X41.22 Y192.755 E56.44836
G1 X40.603 Y192.095 E56.47841
G1 X40.047 Y191.383 E56.50846
G1 X39.557 Y190.625 E56.53848
G1 X39.135 Y189.826 E56.56853
G1 X38.786 Y188.993 E56.59857
G1 X38.512 Y188.133 E56.62859
G1 X38.315 Y187.251 E56.65865
G1 X38.197 Y186.356 E56.68867
G1 X38.149 Y185.136 E56.72928
G1 X38.149 Y184.17 E56.76141
G1 X38.112 Y181.564 E56.8481
G1 X38.004 Y179.014 E56.93299
G1 X37.812 Y176.331 E57.02245
G1 X37.756 Y175.672 E57.04445
G1 X37.73 Y175.179 E57.06087
G1 X37.717 Y174.572 E57.08106
G1 X37.718 Y171.978 E57.16734
G1 X37.736 Y170.976 E57.20067
G1 X37.863 Y168.609 E57.27951
G1 X37.936 Y166.067 E57.36409
G1 X37.936 Y163.533 E57.44837
G1 X37.865 Y161.006 E57.53246
G1 X37.718 Y158.407 E57.61904
G1 X37.555 Y156.387 E57.68644
G1 X37.521 Y155.802 E57.70593
G1 X37.508 Y155.196 E57.72609
G1 X37.509 Y152.6 E57.81244
G1 X37.519 Y151.902 E57.83565
G1 X37.558 Y151.141 E57.861
G1 X37.678 Y150.246 E57.89103
G1 X37.876 Y149.365 E57.92106
G1 X38.151 Y148.505 E57.95109
G1 X38.502 Y147.672 E57.98116
G1 X38.925 Y146.874 E58.0112
G1 X39.416 Y146.117 E58.04121
G1 X40.181 Y145.171 E58.08167
G1 X40.67 Y144.668 E58.10501
G1 X41.345 Y144.021 E58.13611
G1 X43.151 Y142.239 E58.22049
G1 X44.933 Y140.377 E58.30621
G1 X46.626 Y138.505 E58.39016
G1 X48.29 Y136.558 E58.47535
G1 X49.861 Y134.611 E58.55856
G1 X51.42 Y132.561 E58.64422
G1 X52.889 Y130.514 E58.72802
G1 X54.323 Y128.391 E58.81323
G1 X55.668 Y126.272 E58.89671
G1 X56.981 Y124.068 E58.98203
G1 X58.211 Y121.865 E59.06595
G1 X59.401 Y119.583 E59.15155
G1 X60.493 Y117.336 E59.23465
G1 X61.54 Y115.02 E59.31918
G1 X62.524 Y112.666 E59.40404
G1 X63.435 Y110.299 E59.4884
G1 X64.29 Y107.879 E59.57376
G1 X65.056 Y105.495 E59.65705
G1 X65.777 Y103.014 E59.74298
G1 X66.407 Y100.591 E59.82625
G1 X66.975 Y98.122 E59.91051
G1 X67.479 Y95.612 E59.99566
G1 X67.905 Y93.125 E60.07958
G1 X68.264 Y90.603 E60.16431
G1 X68.549 Y88.096 E60.24823
G1 X68.765 Y85.543 E60.33345
G1 X68.907 Y83.046 E60.41663
G1 X68.991 Y79.084 E60.54844
G1 X68.992 Y25.043 E62.34585
G1 X69.002 Y24.378 E62.36797
G1 X69.056 Y23.476 E62.39803
G1 X69.189 Y22.583 E62.42805
G1 X69.4 Y21.705 E62.45809
M204 S2000
G1 F2400 E61.65809
;MESH:??????????????????.stl
G0 F7500 X65.725 Y150.302
G0 X64.413 Y155.174
M204 S500
;TYPE:WALL-INNER
G1 F2400 E62.45809
G1 F1500 X65.57 Y154.055 E62.51162
G1 X65.555 Y151.568 E62.59434
G1 X61.74 Y151.589 E62.72123
G1 X61.74 Y153.88 E62.79743
G1 X62.729 Y153.886 E62.83033
G1 X63.024 Y154.018 E62.84108
G1 X64.413 Y155.174 E62.90118
M204 S2000
G0 F7500 X64.433 Y155.711
M204 S500
;TYPE:WALL-OUTER
G1 F1500 X65.971 Y154.223 E62.97236
G1 X65.953 Y151.166 E63.07404
G1 X61.34 Y151.191 E63.22747
G1 X61.34 Y154.28 E63.33021
G1 X62.67 Y154.282 E63.37444
G1 X62.768 Y154.326 E63.37802
G1 X64.433 Y155.711 E63.45005
M204 S2000
G0 F7500 X64.421 Y155.333
G0 X64.225 Y154.887
G0 X64.393 Y154.687
M204 S500
;TYPE:SKIN
G1 F1500 X63.234 Y153.724 E63.50017
G1 X62.762 Y153.522 E63.51724
G1 X62.1 Y153.52 E63.53926
G1 X62.1 Y151.947 E63.59158
G1 X65.197 Y151.93 E63.69459
G1 X65.207 Y153.899 E63.76008
G1 X64.393 Y154.687 E63.79776
M204 S2000
G0 F7500 X64.225 Y154.887
G0 X62.732 Y153.719
G0 X61.912 Y153.708
G0 X61.84 Y152.809
G0 X62.3 Y152.809
M204 S500
G1 F1500 X62.815 Y153.325 E63.82201
M204 S2000
G0 F7500 X62.72 Y153.777
G0 X61.912 Y153.708
G0 X61.912 Y151.76
G0 X62.764 Y151.683
G0 X62.766 Y152.144
M204 S500
G1 F1500 X64.717 Y154.096 E63.9138
M204 S2000
G0 F7500 X64.429 Y154.373
M204 S500
G1 F1500 X62.3 Y152.244 E64.01394
M204 S2000
G0 F7500 X61.84 Y152.244
