;FLAVOR:Marlin
;TIME:18612
;Filament used: 15.3606m
;Layer height: 0.2
;MINX:36.705
;MINY:15.022
;MINZ:0.2
;MAXX:183.299
;MAXY:204.978
;MAXZ:12.2
;TARGET_MACHINE.NAME:Creality Ender-3 S1 Pro
;Generated with Cura_SteamEngine 5.10.2
; Ender 3 S1 Pro Start G-code
; M413 S0 ; Disable power loss recovery
G92 E0 ; Reset Extruder

; Prep surfaces before auto home for better accuracy
M140 S65
M104 S228

G28 ; Home all axes
G1 Z10.0 F3000 ; Move Z Axis up little to prevent scratching of Heat Bed
G1 X0 Y0

M190 S65
M109 S228

G1 X0.1 Y20 Z0.3 F5000.0 ; Move to start position
G1 X0.1 Y200.0 Z0.3 F1500.0 E15 ; Draw the first line
G1 X0.4 Y200.0 Z0.3 F5000.0 ; Move to side a little
G1 X0.4 Y20 Z0.3 F1500.0 E30 ; Draw the second line
G92 E0 ; Reset Extruder
G1 Z2.0 F3000 ; Move Z Axis up little to prevent scratching of Heat Bed
G1 X5 Y20 Z0.3 F5000.0 ; Move over to prevent blob squish

M82 ;absolute extrusion mode
G92 E0
G92 E0
G1 F2400 E-0.8
;LAYER_COUNT:61
;LAYER:0
M107
M204 S2000
G0 F7500 X74.649 Y22.948 Z0.2
M204 S500
;TYPE:SKIRT
G1 F2400 E0
G1 F1500 X74.951 Y22.059 E0.03123
G1 X75.358 Y21.137 E0.06475
G1 X75.829 Y20.285 E0.09713
G1 X76.374 Y19.476 E0.12957
G1 X76.965 Y18.748 E0.16076
G1 X77.667 Y18.023 E0.19432
G1 X78.377 Y17.409 E0.22554
G1 X79.196 Y16.819 E0.25912
G1 X80.035 Y16.323 E0.29153
G1 X80.849 Y15.932 E0.32157
G1 X81.826 Y15.564 E0.35629
G1 X82.73 Y15.314 E0.38749
G1 X83.732 Y15.131 E0.42137
G1 X84.903 Y15.035 E0.46044
G1 X85.51 Y15.022 E0.48064
G1 X171.603 Y15.022 E3.3441
G1 X172.483 Y15.035 E3.37338
G1 X173.455 Y15.094 E3.40576
G1 X174.418 Y15.24 E3.43816
G1 X175.365 Y15.471 E3.47058
G1 X176.253 Y15.771 E3.50176
G1 X177.145 Y16.161 E3.53413
G1 X178.028 Y16.648 E3.56767
G1 X178.779 Y17.15 E3.59772
G1 X179.594 Y17.808 E3.63256
G1 X180.292 Y18.486 E3.66492
G1 X180.928 Y19.223 E3.6973
G1 X181.498 Y20.013 E3.7297
G1 X181.96 Y20.789 E3.75974
G1 X182.414 Y21.731 E3.79452
G1 X182.743 Y22.609 E3.8257
G1 X183.012 Y23.581 E3.85925
G1 X183.189 Y24.547 E3.89191
G1 X183.284 Y25.677 E3.92963
G1 X183.299 Y26.352 E3.95209
G1 X183.298 Y193.394 E9.50793
G1 X183.286 Y194.155 E9.53324
G1 X183.228 Y195.128 E9.56566
G1 X183.082 Y196.091 E9.59805
G1 X182.851 Y197.038 E9.63048
G1 X182.538 Y197.96 E9.66286
G1 X182.146 Y198.851 E9.69524
G1 X181.694 Y199.673 E9.72644
G1 X181.132 Y200.511 E9.76
G1 X180.542 Y201.241 E9.79121
G1 X179.839 Y201.967 E9.82483
G1 X179.103 Y202.603 E9.85718
G1 X178.313 Y203.173 E9.88958
G1 X177.537 Y203.636 E9.91964
G1 X176.597 Y204.089 E9.95434
G1 X175.684 Y204.431 E9.98677
G1 X174.746 Y204.69 E10.01913
G1 X173.78 Y204.867 E10.0518
G1 X172.644 Y204.963 E10.08972
G1 X171.969 Y204.978 E10.11217
G1 X85.747 Y204.977 E12.97993
G1 X85.02 Y204.965 E13.00411
G1 X84.193 Y204.92 E13.03166
G1 X83.237 Y204.79 E13.06375
G1 X82.556 Y204.644 E13.08691
G1 X81.557 Y204.347 E13.12158
G1 X80.551 Y203.937 E13.15771
G1 X77.772 Y202.674 E13.25924
G1 X75.42 Y201.691 E13.34402
G1 X73.073 Y200.788 E13.42766
G1 X70.697 Y199.949 E13.51147
G1 X68.309 Y199.182 E13.59489
G1 X65.884 Y198.477 E13.67889
G1 X63.494 Y197.856 E13.76102
G1 X60.979 Y197.277 E13.84685
G1 X58.533 Y196.786 E13.92983
G1 X56.041 Y196.36 E14.01392
G1 X53.575 Y196.009 E14.09676
G1 X51.067 Y195.726 E14.18071
G1 X48.519 Y195.508 E14.26577
G1 X47.556 Y195.438 E14.29788
G1 X46.589 Y195.324 E14.33027
G1 X45.635 Y195.124 E14.36269
G1 X44.704 Y194.84 E14.39506
G1 X43.801 Y194.476 E14.42744
G1 X42.933 Y194.033 E14.45985
G1 X42.109 Y193.515 E14.49223
G1 X41.334 Y192.927 E14.52458
G1 X40.612 Y192.272 E14.55701
G1 X39.952 Y191.556 E14.58939
G1 X39.358 Y190.784 E14.62179
G1 X38.853 Y189.993 E14.65301
G1 X38.387 Y189.097 E14.6866
G1 X38.016 Y188.196 E14.719
G1 X37.727 Y187.267 E14.75136
G1 X37.521 Y186.315 E14.78376
G1 X37.4 Y185.35 E14.81611
G1 X37.356 Y184.164 E14.85558
G1 X37.356 Y182.659 E14.90564
G1 X37.319 Y180.065 E14.99192
G1 X37.211 Y177.537 E15.07608
G1 X36.938 Y173.695 E15.20419
G1 X36.925 Y173.076 E15.22478
G1 X36.914 Y168.073 E15.39118
G1 X36.92 Y167.296 E15.41703
G1 X36.992 Y165.37 E15.48113
G1 X37.049 Y162.864 E15.5645
G1 X37.034 Y160.322 E15.64905
G1 X36.948 Y157.841 E15.73162
G1 X36.742 Y154.632 E15.83857
G1 X36.72 Y153.985 E15.8601
G1 X36.705 Y148.696 E16.03601
G1 X36.713 Y147.918 E16.06189
G1 X36.767 Y146.946 E16.09427
G1 X36.907 Y145.982 E16.12667
G1 X37.131 Y145.034 E16.15907
G1 X37.439 Y144.109 E16.1915
G1 X37.827 Y143.218 E16.22382
G1 X38.292 Y142.361 E16.25625
G1 X38.79 Y141.608 E16.28627
G1 X39.441 Y140.791 E16.32102
G1 X40.11 Y140.093 E16.35318
G1 X40.691 Y139.574 E16.37909
G1 X41.483 Y138.925 E16.41314
G1 X43.498 Y137.228 E16.50076
G1 X45.386 Y135.544 E16.58491
G1 X47.189 Y133.843 E16.66735
G1 X48.972 Y132.062 E16.75117
G1 X50.729 Y130.202 E16.83627
G1 X52.387 Y128.348 E16.919
G1 X54.03 Y126.402 E17.00371
G1 X55.585 Y124.451 E17.08669
G1 X57.088 Y122.45 E17.16992
G1 X58.537 Y120.403 E17.25334
G1 X59.947 Y118.29 E17.33783
G1 X61.269 Y116.178 E17.4207
G1 X62.56 Y113.983 E17.5054
G1 X63.753 Y111.814 E17.58773
G1 X64.931 Y109.525 E17.67335
G1 X66.001 Y107.288 E17.75583
G1 X67.04 Y104.95 E17.84092
G1 X67.98 Y102.663 E17.92317
G1 X68.881 Y100.281 E18.00787
G1 X69.706 Y97.899 E18.09171
G1 X70.448 Y95.545 E18.1738
G1 X71.15 Y93.071 E18.25934
G1 X71.76 Y90.675 E18.34157
G1 X72.315 Y88.19 E18.42626
G1 X72.789 Y85.746 E18.50906
G1 X73.204 Y83.233 E18.59378
G1 X73.544 Y80.74 E18.67746
G1 X73.813 Y78.237 E18.76119
G1 X74.013 Y75.74 E18.84451
G1 X74.137 Y73.252 E18.92736
G1 X74.198 Y69.895 E19.03903
G1 X74.199 Y26.531 E20.48133
G1 X74.211 Y25.83 E20.50465
G1 X74.271 Y24.857 E20.53707
G1 X74.418 Y23.896 E20.5694
G1 X74.649 Y22.948 E20.60186
M204 S2000
G0 F7500 X75.028 Y23.077
M204 S500
G1 F1500 X75.33 Y22.188 E20.63308
G1 X75.708 Y21.33 E20.66427
G1 X76.161 Y20.508 E20.69549
G1 X76.685 Y19.728 E20.72674
G1 X77.276 Y19 E20.75793
G1 X77.929 Y18.326 E20.78914
G1 X78.639 Y17.712 E20.82036
G1 X79.4 Y17.163 E20.85157
G1 X80.208 Y16.684 E20.88281
G1 X81.022 Y16.293 E20.91285
G1 X81.933 Y15.95 E20.94522
G1 X82.837 Y15.7 E20.97642
G1 X83.765 Y15.53 E21.0078
G1 X84.912 Y15.435 E21.04608
G1 X85.519 Y15.422 E21.06627
G1 X171.597 Y15.422 E23.92924
G1 X172.459 Y15.434 E23.95791
G1 X173.396 Y15.49 E23.98913
G1 X174.324 Y15.629 E24.02034
G1 X175.237 Y15.85 E24.05158
G1 X176.093 Y16.138 E24.08162
G1 X176.985 Y16.528 E24.114
G1 X177.806 Y16.981 E24.14519
G1 X178.557 Y17.483 E24.17523
G1 X179.316 Y18.095 E24.20766
G1 X179.99 Y18.748 E24.23888
G1 X180.604 Y19.457 E24.27007
G1 X181.154 Y20.218 E24.3013
G1 X181.616 Y20.994 E24.33134
G1 X182.039 Y21.871 E24.36372
G1 X182.368 Y22.749 E24.39491
G1 X182.619 Y23.654 E24.42615
G1 X182.79 Y24.581 E24.4575
G1 X182.885 Y25.711 E24.49521
G1 X182.899 Y26.352 E24.51654
G1 X182.898 Y193.388 E30.07218
G1 X182.887 Y194.132 E30.09693
G1 X182.832 Y195.069 E30.12815
G1 X182.693 Y195.997 E30.15936
G1 X182.472 Y196.91 E30.1906
G1 X182.172 Y197.799 E30.2218
G1 X181.795 Y198.658 E30.25301
G1 X181.343 Y199.48 E30.28421
G1 X180.82 Y200.26 E30.31544
G1 X180.254 Y200.963 E30.34546
G1 X179.577 Y201.665 E30.3779
G1 X178.869 Y202.279 E30.40907
G1 X178.108 Y202.829 E30.4403
G1 X177.332 Y203.292 E30.47035
G1 X176.456 Y203.715 E30.50271
G1 X175.577 Y204.046 E30.53395
G1 X174.673 Y204.297 E30.56515
G1 X173.746 Y204.468 E30.5965
G1 X172.61 Y204.564 E30.63442
G1 X171.969 Y204.578 E30.65575
G1 X85.753 Y204.577 E33.5233
G1 X85.041 Y204.566 E33.54699
G1 X84.247 Y204.524 E33.57343
G1 X83.321 Y204.399 E33.60451
G1 X82.64 Y204.253 E33.62767
G1 X81.708 Y203.976 E33.66001
G1 X80.717 Y203.573 E33.69559
G1 X77.938 Y202.31 E33.79712
G1 X75.574 Y201.322 E33.88234
G1 X73.217 Y200.415 E33.96634
G1 X70.819 Y199.568 E34.05093
G1 X68.431 Y198.801 E34.13435
G1 X65.991 Y198.092 E34.21886
G1 X63.584 Y197.466 E34.30158
G1 X61.069 Y196.887 E34.38742
G1 X58.612 Y196.394 E34.47076
G1 X56.097 Y195.964 E34.55563
G1 X53.631 Y195.613 E34.63847
G1 X51.101 Y195.327 E34.72316
G1 X48.553 Y195.109 E34.80821
G1 X47.602 Y195.041 E34.83993
G1 X46.67 Y194.932 E34.87114
G1 X45.751 Y194.741 E34.90235
G1 X44.853 Y194.469 E34.93356
G1 X43.982 Y194.12 E34.96477
G1 X43.145 Y193.694 E34.99601
G1 X42.35 Y193.196 E35.02721
G1 X41.602 Y192.63 E35.05841
G1 X40.906 Y192 E35.08963
G1 X40.269 Y191.311 E35.12084
G1 X39.695 Y190.568 E35.15207
G1 X39.208 Y189.808 E35.18209
G1 X38.757 Y188.944 E35.21451
G1 X38.398 Y188.077 E35.24572
G1 X38.118 Y187.182 E35.27691
G1 X37.918 Y186.265 E35.30813
G1 X37.8 Y185.335 E35.33931
G1 X37.756 Y184.149 E35.37878
G1 X37.756 Y182.659 E35.42834
G1 X37.719 Y180.059 E35.51482
G1 X37.611 Y177.52 E35.59935
G1 X37.338 Y173.687 E35.72715
G1 X37.325 Y173.075 E35.74751
G1 X37.314 Y168.076 E35.91378
G1 X37.32 Y167.311 E35.93923
G1 X37.392 Y165.385 E36.00333
G1 X37.449 Y162.873 E36.0869
G1 X37.434 Y160.32 E36.17182
G1 X37.348 Y157.827 E36.25478
G1 X37.202 Y155.649 E36.32739
G1 X37.142 Y154.618 E36.36174
G1 X37.12 Y153.984 E36.38284
G1 X37.105 Y148.7 E36.55858
G1 X37.112 Y147.94 E36.58386
G1 X37.163 Y147.003 E36.61507
G1 X37.296 Y146.074 E36.64629
G1 X37.511 Y145.16 E36.67752
G1 X37.806 Y144.268 E36.70876
G1 X38.179 Y143.408 E36.73994
G1 X38.626 Y142.582 E36.77118
G1 X39.124 Y141.829 E36.80121
G1 X39.73 Y141.067 E36.83359
G1 X40.376 Y140.391 E36.86469
G1 X40.945 Y139.883 E36.89006
G1 X41.737 Y139.234 E36.92411
G1 X43.756 Y137.534 E37.0119
G1 X45.652 Y135.843 E37.0964
G1 X47.472 Y134.126 E37.17962
G1 X49.255 Y132.345 E37.26344
G1 X51.02 Y130.477 E37.34892
G1 X52.685 Y128.615 E37.43199
G1 X54.336 Y126.66 E37.5171
G1 X55.898 Y124.7 E37.60046
G1 X57.408 Y122.69 E37.68408
G1 X58.87 Y120.625 E37.76823
G1 X60.28 Y118.512 E37.85272
G1 X61.614 Y116.381 E37.93634
G1 X62.905 Y114.186 E38.02104
G1 X64.109 Y111.997 E38.10413
G1 X65.287 Y109.708 E38.18975
G1 X66.362 Y107.461 E38.2726
G1 X67.406 Y105.112 E38.3581
G1 X68.35 Y102.815 E38.4407
G1 X69.255 Y100.423 E38.52576
G1 X70.084 Y98.03 E38.60999
G1 X70.833 Y95.654 E38.69285
G1 X71.535 Y93.18 E38.77838
G1 X72.147 Y90.774 E38.86096
G1 X72.708 Y88.266 E38.94643
G1 X73.182 Y85.822 E39.02924
G1 X73.599 Y83.298 E39.11432
G1 X73.942 Y80.783 E39.19875
G1 X74.211 Y78.28 E39.28248
G1 X74.411 Y75.772 E39.36616
G1 X74.537 Y73.259 E39.44984
G1 X74.598 Y69.902 E39.56152
G1 X74.599 Y26.537 E41.00384
G1 X74.61 Y25.854 E41.02656
G1 X74.667 Y24.917 E41.05779
G1 X74.807 Y23.99 E41.08897
G1 X75.028 Y23.077 E41.12021
M204 S2000
G0 F7500 X75.407 Y23.205
M204 S500
G1 F1500 X75.696 Y22.349 E41.15026
G1 X76.059 Y21.522 E41.1803
G1 X76.493 Y20.731 E41.21031
G1 X76.996 Y19.98 E41.24037
G1 X77.564 Y19.278 E41.27041
G1 X78.191 Y18.628 E41.30044
G1 X78.873 Y18.036 E41.33048
G1 X79.605 Y17.507 E41.36052
G1 X80.381 Y17.045 E41.39056
G1 X81.195 Y16.654 E41.42059
G1 X82.04 Y16.335 E41.45063
G1 X82.91 Y16.093 E41.48067
G1 X83.798 Y15.929 E41.5107
G1 X84.921 Y15.835 E41.54818
G1 X85.528 Y15.822 E41.56838
G1 X171.592 Y15.822 E44.43088
G1 X172.436 Y15.833 E44.45895
G1 X173.338 Y15.886 E44.489
G1 X174.231 Y16.018 E44.51903
G1 X175.109 Y16.229 E44.54906
G1 X175.965 Y16.517 E44.5791
G1 X176.792 Y16.879 E44.60913
G1 X177.584 Y17.314 E44.63918
G1 X178.335 Y17.816 E44.66923
G1 X179.038 Y18.383 E44.69926
G1 X179.688 Y19.01 E44.7293
G1 X180.28 Y19.692 E44.75934
G1 X180.81 Y20.423 E44.78937
G1 X181.272 Y21.199 E44.81941
G1 X181.665 Y22.012 E44.84944
G1 X181.983 Y22.857 E44.87947
G1 X182.226 Y23.727 E44.90952
G1 X182.391 Y24.615 E44.93956
G1 X182.486 Y25.745 E44.97727
G1 X182.499 Y26.352 E44.99747
G1 X182.498 Y193.382 E50.55291
G1 X182.488 Y194.109 E50.57709
G1 X182.436 Y195.011 E50.60714
G1 X182.304 Y195.904 E50.63716
G1 X182.093 Y196.783 E50.66723
G1 X181.806 Y197.639 E50.69726
G1 X181.444 Y198.466 E50.72728
G1 X181.01 Y199.258 E50.75732
G1 X180.508 Y200.009 E50.78737
G1 X179.942 Y200.712 E50.81739
G1 X179.315 Y201.363 E50.84745
G1 X178.634 Y201.955 E50.87746
G1 X177.903 Y202.485 E50.90749
G1 X177.127 Y202.948 E50.93755
G1 X176.314 Y203.341 E50.96758
G1 X175.469 Y203.661 E50.99763
G1 X174.6 Y203.904 E51.02764
G1 X173.712 Y204.069 E51.05768
G1 X172.576 Y204.165 E51.0956
G1 X171.969 Y204.178 E51.1158
G1 X85.759 Y204.177 E53.98315
G1 X85.061 Y204.167 E54.00637
G1 X84.3 Y204.128 E54.03171
G1 X83.405 Y204.008 E54.06175
G1 X82.724 Y203.862 E54.08491
G1 X81.859 Y203.605 E54.11493
G1 X80.868 Y203.202 E54.15051
G1 X78.092 Y201.941 E54.25192
G1 X75.728 Y200.953 E54.33714
G1 X73.361 Y200.042 E54.42149
G1 X70.941 Y199.187 E54.50686
G1 X68.553 Y198.42 E54.59028
G1 X66.098 Y197.707 E54.67531
G1 X63.674 Y197.076 E54.75862
G1 X61.159 Y196.497 E54.84445
G1 X58.691 Y196.002 E54.92817
G1 X56.153 Y195.568 E55.01381
G1 X53.687 Y195.217 E55.09666
G1 X51.135 Y194.928 E55.18208
G1 X48.587 Y194.71 E55.26714
G1 X47.648 Y194.644 E55.29845
G1 X46.751 Y194.54 E55.32848
G1 X45.866 Y194.358 E55.35853
G1 X45.001 Y194.098 E55.38857
G1 X44.163 Y193.763 E55.41859
G1 X43.357 Y193.355 E55.44864
G1 X42.591 Y192.877 E55.47867
G1 X41.87 Y192.333 E55.50871
G1 X41.199 Y191.728 E55.53876
G1 X40.585 Y191.066 E55.56879
G1 X40.032 Y190.352 E55.59883
G1 X39.545 Y189.592 E55.62885
G1 X39.126 Y188.791 E55.65891
G1 X38.78 Y187.957 E55.68895
G1 X38.509 Y187.096 E55.71897
G1 X38.315 Y186.214 E55.749
G1 X38.2 Y185.318 E55.77905
G1 X38.156 Y184.136 E55.81839
G1 X38.156 Y182.659 E55.86752
G1 X38.119 Y180.053 E55.9542
G1 X38.011 Y177.503 E56.03909
G1 X37.738 Y173.678 E56.16663
G1 X37.725 Y173.074 E56.18673
G1 X37.714 Y168.079 E56.35286
G1 X37.72 Y167.326 E56.37791
G1 X37.792 Y165.4 E56.44201
G1 X37.849 Y162.882 E56.52578
G1 X37.834 Y160.318 E56.61106
G1 X37.748 Y157.813 E56.69443
G1 X37.601 Y155.626 E56.76733
G1 X37.542 Y154.604 E56.80138
G1 X37.52 Y153.983 E56.82205
G1 X37.505 Y148.703 E56.99766
G1 X37.511 Y147.961 E57.02234
G1 X37.559 Y147.059 E57.05239
G1 X37.685 Y146.165 E57.08241
G1 X37.891 Y145.285 E57.11247
G1 X38.173 Y144.427 E57.14251
G1 X38.531 Y143.598 E57.17255
G1 X38.96 Y142.803 E57.20259
G1 X39.458 Y142.05 E57.23262
G1 X40.02 Y141.343 E57.26266
G1 X40.643 Y140.689 E57.2927
G1 X41.199 Y140.192 E57.3175
G1 X41.991 Y139.543 E57.35156
G1 X44.014 Y137.84 E57.43951
G1 X45.918 Y136.142 E57.52437
G1 X47.755 Y134.409 E57.60836
G1 X49.538 Y132.628 E57.69218
G1 X51.311 Y130.752 E57.77803
G1 X52.983 Y128.882 E57.86147
G1 X54.642 Y126.918 E57.94698
G1 X56.211 Y124.949 E58.03071
G1 X57.728 Y122.93 E58.11471
G1 X59.203 Y120.847 E58.1996
G1 X60.613 Y118.734 E58.28409
G1 X61.959 Y116.584 E58.36846
G1 X63.25 Y114.389 E58.45315
G1 X64.465 Y112.18 E58.53701
G1 X65.643 Y109.891 E58.62263
G1 X66.723 Y107.634 E58.70585
G1 X67.772 Y105.274 E58.79175
G1 X68.72 Y102.967 E58.8747
G1 X69.629 Y100.565 E58.96012
G1 X70.462 Y98.161 E59.04475
G1 X71.218 Y95.763 E59.12837
G1 X71.92 Y93.289 E59.21391
G1 X72.534 Y90.873 E59.29682
G1 X73.101 Y88.342 E59.38309
G1 X73.575 Y85.898 E59.46589
G1 X73.994 Y83.363 E59.55135
G1 X74.34 Y80.826 E59.63651
G1 X74.609 Y78.323 E59.72024
G1 X74.809 Y75.804 E59.80428
G1 X74.937 Y73.266 E59.88881
G1 X74.998 Y69.909 E60.00048
G1 X74.999 Y26.543 E61.44284
G1 X75.009 Y25.878 E61.46496
G1 X75.063 Y24.976 E61.49501
G1 X75.196 Y24.083 E61.52504
G1 X75.407 Y23.205 E61.55508
M204 S2000
G1 F2400 E60.75508
;MESH:??????????????????2121.stl
G0 F7500 X65.718 Y146.302
G0 X64.421 Y153.674
M204 S500
;TYPE:WALL-INNER
G1 F2400 E61.55508
G1 F1500 X65.578 Y152.555 E61.60861
G1 X65.547 Y147.568 E61.77448
G1 X61.736 Y147.589 E61.90124
G1 X61.748 Y149.484 E61.96427
G1 X61.748 Y152.38 E62.06059
G1 X62.648 Y152.38 E62.09052
G1 X62.938 Y152.44 E62.10037
G1 X64.421 Y153.674 E62.16454
M204 S2000
G0 F7500 X64.441 Y154.211
M204 S500
;TYPE:WALL-OUTER
G1 F1500 X65.979 Y152.723 E62.23572
G1 X65.945 Y147.166 E62.42055
G1 X61.334 Y147.191 E62.57391
G1 X61.348 Y149.484 E62.65018
G1 X61.348 Y152.78 E62.7598
G1 X62.72 Y152.78 E62.80544
G1 X64.441 Y154.211 E62.87988
M204 S2000
G0 F7500 X64.428 Y153.833
G0 X64.234 Y153.387
G0 X64.401 Y153.187
M204 S500
;TYPE:SKIN
G1 F1500 X63.107 Y152.11 E62.93588
G1 X62.683 Y152.023 E62.95027
G1 X62.108 Y152.02 E62.9694
G1 X62.108 Y149.484 E63.05374
G1 X62.098 Y147.947 E63.10487
G1 X65.189 Y147.93 E63.20768
G1 X65.215 Y152.399 E63.35632
G1 X64.401 Y153.187 E63.394
M204 S2000
G0 F7500 X64.234 Y153.387
G0 X62.291 Y152.205
G0 X61.92 Y152.208
